src/assets/icons/euro.svg

<svg width="14" height="14" viewBox="0 0 14 14" fill="none" xmlns="http://www.w3.org/2000/svg">
<g id="euro">
<g clip-path="url(#clip0_156_4545)">
<path id="Vector" d="M8.72337 14C8.68177 14 8.64018 14 8.59938 13.9992C5.40502 13.9436 2.74129 11.7451 1.95688 8.80067H0.721918C0.39076 8.80067 0.121994 8.5319 0.121994 8.20074C0.121994 7.86959 0.39076 7.60082 0.721918 7.60082H1.74775C1.72751 7.36337 1.71922 7.12266 1.72345 6.8793C1.72627 6.71888 1.73443 6.55937 1.74784 6.40097H0.721918C0.39076 6.40097 0.121994 6.13221 0.121994 5.80105C0.121994 5.46989 0.39076 5.20112 0.721918 5.20112H1.955C2.27742 3.97981 2.92758 2.86554 3.85918 1.96552C5.20381 0.666488 6.94519 -0.0486217 8.84335 0.00257186C10.6407 0.0337679 12.3373 0.744878 13.6212 2.00312C13.8579 2.23429 13.8619 2.61504 13.6299 2.85181C13.398 3.08778 13.018 3.09258 12.7813 2.85981C11.7174 1.81754 10.312 1.22882 8.82256 1.20322C7.27795 1.17202 5.80694 1.75355 4.69268 2.82941C3.99998 3.49874 3.49493 4.31058 3.20558 5.20112H11.9205C12.2517 5.20112 12.5204 5.46989 12.5204 5.80105C12.5204 6.13221 12.2525 6.40097 11.9205 6.40097H2.95292C2.93608 6.56591 2.92616 6.7324 2.9233 6.9001C2.91916 7.13697 2.92934 7.37082 2.95305 7.60082H10.7207C11.0518 7.60082 11.3206 7.86959 11.3206 8.20074C11.3206 8.5319 11.0526 8.80067 10.7207 8.80067H3.20794C3.95506 11.0846 6.08612 12.7564 8.62018 12.8002C10.1024 12.8322 11.5358 12.2874 12.6341 11.2819L12.8117 11.1132C13.0444 10.8804 13.4492 10.8508 13.6827 11.0812C13.9179 11.3107 13.9515 11.6595 13.7235 11.8971C13.7211 11.9003 13.6859 11.9363 13.6827 11.9387L13.4492 12.1626C12.1485 13.3513 10.4759 14 8.72337 14Z" fill="black"/>
</g>
</g>
<defs>
<clipPath id="clip0_156_4545">
<rect width="14" height="14" fill="white"/>
</clipPath>
</defs>
</svg>

<svg xmlns="http://www.w3.org/2000/svg" fill="none" viewBox="0 0 14 14"><g clip-path="url(#a)"><path fill="#000" d="M8.723 14H8.6c-3.194-.056-5.858-2.255-6.642-5.2H.722a.6.6 0 0 1 0-1.2h1.026a7 7 0 0 1 0-1.199H.722a.6.6 0 0 1 0-1.2h1.233a6.96 6.96 0 0 1 1.904-3.235C5.204.666 6.945-.05 8.843.003a6.97 6.97 0 0 1 4.778 2 .6.6 0 1 1-.84.857 5.78 5.78 0 0 0-3.958-1.657 5.75 5.75 0 0 0-4.13 1.626 5.8 5.8 0 0 0-1.487 2.372h8.715a.6.6 0 0 1 0 1.2H2.953a6 6 0 0 0 0 1.2h7.768a.6.6 0 0 1 0 1.2H3.208a5.81 5.81 0 0 0 5.412 4 5.76 5.76 0 0 0 4.014-1.52l.178-.168c.232-.233.637-.262.87-.032.236.23.27.579.041.816l-.04.042-.234.224A6.98 6.98 0 0 1 8.723 14"/></g><defs><clipPath id="a"><path fill="#fff" d="M0 0h14v14H0z"/></clipPath></defs></svg>
